icons/breezeDark/toolpath/prof_out_conv.svg

<svg height="75" viewBox="0 0 19.84375 19.843751" width="75" xmlns="http://www.w3.org/2000/svg"><g fill="#c0c0c0"><circle cx="-17.859379" cy="287.07809" fill-opacity=".5" r="1.719792" stroke-width=".264583" transform="matrix(-1 0 0 1 0 -277.15623)"/><path d="m15 15v45h45v-22.462891a7.4999998 7.4999998 0 0 0 7.5 7.462891 7.4999998 7.4999998 0 0 0 7.5-7.5 7.4999998 7.4999998 0 0 0 -7.5-7.5 7.4999998 7.4999998 0 0 0 -7.5 7.462891v-22.462891zm1 1h43v43h-43zm51.5 15a6.5 6.5 0 0 1 6.5 6.5 6.5 6.5 0 0 1 -6.5 6.5 6.5 6.5 0 0 1 -6.5-6.5 6.5 6.5 0 0 1 6.5-6.5z" stroke-width=".989072" transform="scale(.26458334)"/><circle cx="-9.921875" cy="279.14059" r="1.984375" stroke-width=".264583" transform="matrix(-1 0 0 1 0 -277.15623)"/></g><circle cx="-9.921875" cy="279.14059" fill="#3daee9" r="1.719792" stroke-width=".264583" transform="matrix(-1 0 0 1 0 -277.15623)"/><path d="m47 3-8.488281 3.3945312a1.5000001 1.5000001 0 0 0 -1.011719-.3945312 1.5000001 1.5000001 0 0 0 -1.5 1.5 1.5000001 1.5000001 0 0 0 1.5 1.5 1.5000001 1.5000001 0 0 0 1.011719-.3945312l8.488281 3.3945312v-1l-7.5-3h20.498047.001953l.005859.0078125a6.9999997 6.9999997 0 0 1 4.802735 1.9042969 6.9999997 6.9999997 0 0 1 2.1875 5.1738286l.003906.003906v20.998047a1.5000001 1.5000001 0 0 0 -1 1.412109 1.5000001 1.5000001 0 0 0 1.5 1.5 1.5000001 1.5000001 0 0 0 1.5-1.5 1.5000001 1.5000001 0 0 0 -1-1.412109v-21.087891h-.007812a8.0000003 8.0000003 0 0 0 -2.300782-5.6210938 8.0000003 8.0000003 0 0 0 -5.691406-2.3769531v-.0019531h-20.5l7.5-3z" fill="#da4453" transform="scale(.26458334)"/></svg>

<?xml version="1.0" encoding="UTF-8" standalone="no"?>
<svg
   xmlns:dc="http://purl.org/dc/elements/1.1/"
   xmlns:cc="http://creativecommons.org/ns#"
   xmlns:rdf="http://www.w3.org/1999/02/22-rdf-syntax-ns#"
   xmlns:svg="http://www.w3.org/2000/svg"
   xmlns="http://www.w3.org/2000/svg"
   xmlns:sodipodi="http://sodipodi.sourceforge.net/DTD/sodipodi-0.dtd"
   xmlns:inkscape="http://www.inkscape.org/namespaces/inkscape"
   sodipodi:docname="prof_out_conv.svg"
   inkscape:version="1.0beta1 (fe3e306, 2019-09-17)"
   id="svg8"
   version="1.1"
   viewBox="0 0 19.84375 19.843751"
   height="75"
   width="75">
  <defs
     id="defs2" />
  <sodipodi:namedview
     inkscape:document-rotation="0"
     inkscape:window-maximized="0"
     inkscape:window-y="0"
     inkscape:window-x="1003"
     inkscape:window-height="1042"
     inkscape:window-width="901"
     showguides="false"
     units="px"
     showgrid="true"
     inkscape:current-layer="layer1"
     inkscape:document-units="px"
     inkscape:cy="32.878733"
     inkscape:cx="55.253072"
     inkscape:zoom="11.313709"
     inkscape:pageshadow="2"
     inkscape:pageopacity="0.0"
     borderopacity="1.0"
     bordercolor="#666666"
     pagecolor="#ffffff"
     id="base">
    <inkscape:grid
       id="grid10"
       type="xygrid" />
  </sodipodi:namedview>
  <metadata
     id="metadata5">
    <rdf:RDF>
      <cc:Work
         rdf:about="">
        <dc:format>image/svg+xml</dc:format>
        <dc:type
           rdf:resource="http://purl.org/dc/dcmitype/StillImage" />
        <dc:title />
      </cc:Work>
    </rdf:RDF>
  </metadata>
  <g
     transform="translate(0,-277.15623)"
     id="layer1"
     inkscape:groupmode="layer"
     inkscape:label="Layer 1">
    <circle
       style="fill:#c0c0c0;stroke-width:0.264583;fill-opacity:0.5"
       id="path24-4"
       cx="-17.859379"
       cy="287.07809"
       r="1.7197917"
       transform="scale(-1,1)" />
    <path
       transform="matrix(0.26458334,0,0,0.26458334,0,277.15623)"
       d="M 15 15 L 15 60 L 60 60 L 60 37.537109 A 7.4999998 7.4999998 0 0 0 67.5 45 A 7.4999998 7.4999998 0 0 0 75 37.5 A 7.4999998 7.4999998 0 0 0 67.5 30 A 7.4999998 7.4999998 0 0 0 60 37.462891 L 60 15 L 15 15 z M 16 16 L 59 16 L 59 59 L 16 59 L 16 16 z M 67.5 31 A 6.5 6.5 0 0 1 74 37.5 A 6.5 6.5 0 0 1 67.5 44 A 6.5 6.5 0 0 1 61 37.5 A 6.5 6.5 0 0 1 67.5 31 z "
       style="stroke-width:0.989072;fill:#c0c0c0;fill-opacity:1"
       id="rect14" />
    <circle
       transform="scale(-1,1)"
       r="1.984375"
       cy="279.14059"
       cx="-9.921875"
       id="path22"
       style="fill:#c0c0c0;stroke-width:0.26458335;fill-opacity:1" />
    <circle
       transform="scale(-1,1)"
       r="1.7197917"
       cy="279.14059"
       cx="-9.921875"
       id="path24"
       style="fill:#3daee9;stroke-width:0.26458335;fill-opacity:1" />
    <path
       id="rect26"
       transform="matrix(0.26458334,0,0,0.26458334,0,277.15623)"
       d="M 47 3 L 38.511719 6.3945312 A 1.5000001 1.5000001 0 0 0 37.5 6 A 1.5000001 1.5000001 0 0 0 36 7.5 A 1.5000001 1.5000001 0 0 0 37.5 9 A 1.5000001 1.5000001 0 0 0 38.511719 8.6054688 L 47 12 L 47 11 L 39.5 8 L 59.998047 8 L 60 8 L 60.005859 8.0078125 A 6.9999997 6.9999997 0 0 1 64.808594 9.9121094 A 6.9999997 6.9999997 0 0 1 66.996094 15.085938 L 67 15.089844 L 67 36.087891 A 1.5000001 1.5000001 0 0 0 66 37.5 A 1.5000001 1.5000001 0 0 0 67.5 39 A 1.5000001 1.5000001 0 0 0 69 37.5 A 1.5000001 1.5000001 0 0 0 68 36.087891 L 68 15 L 67.992188 15 A 8.0000003 8.0000003 0 0 0 65.691406 9.3789062 A 8.0000003 8.0000003 0 0 0 60 7.0019531 L 60 7 L 39.5 7 L 47 4 L 47 3 z "
       style="fill:#da4453;stroke-width:1;fill-opacity:1" />
  </g>
</svg>
